01_P/P_3_1_2_02/data/period.svg

<svg width="100" height="100" viewBox="0 0 100 100" xmlns="http://www.w3.org/2000/svg"><path d="M56.247.015H41.242v1.846h.004c-.004 10.909-4.401 20.716-11.548 27.874C22.54 36.88 12.733 41.277 1.823 41.281H-.023v15.005h1.846v-.005c30.057-.007 54.417-24.363 54.423-54.42h.001V.015z"/></svg>

<?xml version="1.0" encoding="utf-8"?>
<svg id="Ebene_1" x="0px" y="0px" width="100px" height="100px" viewBox="0 0 100 100" xmlns="http://www.w3.org/2000/svg">
  <path d="M 56.247 0.015 L 41.242 0.015 L 41.242 1.861 L 41.246 1.861 C 41.242 12.77 36.845 22.577 29.698 29.735 C 22.54 36.88 12.733 41.277 1.823 41.281 L -0.023 41.281 L -0.023 56.286 L 1.823 56.286 L 1.823 56.281 C 31.88 56.274 56.24 31.918 56.246 1.861 L 56.247 1.861 L 56.247 0.015 Z"/>
</svg>
